SVG_Azure_All/Azure Automation Runbook.svg

<?xml version="1.0" encoding="UTF-8" standalone="no"?>
<!-- Generated by Microsoft Visio, SVG Export Azure Automation Runbook.svg Page-1 -->

<svg
   xmlns:dc="http://purl.org/dc/elements/1.1/"
   xmlns:cc="http://creativecommons.org/ns#"
   xmlns:rdf="http://www.w3.org/1999/02/22-rdf-syntax-ns#"
   xmlns:svg="http://www.w3.org/2000/svg"
   xmlns="http://www.w3.org/2000/svg"
   xmlns:sodipodi="http://sodipodi.sourceforge.net/DTD/sodipodi-0.dtd"
   xmlns:inkscape="http://www.inkscape.org/namespaces/inkscape"
   width="0.70717257in"
   height="0.78745359in"
   viewBox="0 0 50.916368 56.696799"
   xml:space="preserve"
   class="st3"
   version="1.1"
   id="svg36"
   sodipodi:docname="Azure Automation Runbook.svg"
   style="font-size:12px;overflow:visible;color-interpolation-filters:sRGB;fill:none;fill-rule:evenodd;stroke-linecap:square;stroke-miterlimit:3"
   inkscape:version="0.92.5 (2060ec1f9f, 2020-04-08)"><metadata
   id="metadata42"><rdf:RDF><cc:Work
       rdf:about=""><dc:format>image/svg+xml</dc:format><dc:type
         rdf:resource="http://purl.org/dc/dcmitype/StillImage" /></cc:Work></rdf:RDF></metadata><defs
   id="defs40" /><sodipodi:namedview
   pagecolor="#ffffff"
   bordercolor="#666666"
   borderopacity="1"
   objecttolerance="10"
   gridtolerance="10"
   guidetolerance="10"
   inkscape:pageopacity="0"
   inkscape:pageshadow="2"
   inkscape:window-width="640"
   inkscape:window-height="480"
   id="namedview38"
   showgrid="false"
   inkscape:zoom="1.8365233"
   inkscape:cx="34.015635"
   inkscape:cy="18.900351"
   inkscape:window-x="0"
   inkscape:window-y="0"
   inkscape:window-maximized="0"
   inkscape:current-layer="svg36" />
	<style
   type="text/css"
   id="style2">
	<![CDATA[
		.st1 {fill:#7a7a7a;stroke:none;stroke-linecap:butt;stroke-width:0.75}
		.st2 {fill:#59b4d9;stroke:none;stroke-linecap:butt;stroke-width:0.75}
		.st3 {fill:none;fill-rule:evenodd;font-size:12px;overflow:visible;stroke-linecap:square;stroke-miterlimit:3}
	]]>
	</style>

	<g
   id="g34"
   transform="translate(-5.1024712,-5.6675)">
		<title
   id="title4">Page-1</title>
		<g
   id="group8489-1"
   transform="translate(5.10236,-34.0157)">
			<title
   id="title6">COLOUR-DEVELOPMENT_Azure-Automation-Runbook</title>
			<g
   id="shape8490-2"
   transform="translate(7.38355,-14.088)">
				<title
   id="title8">path2</title>
				<path
   d="M 33.61,80.13 H 2.53 C 1.21,80.13 0,81.27 0,82.97 v 12.16 l 4.3,1.25 V 84.56 h 27.44 v 11.7 l 4.3,-1.25 V 82.97 c 0,-1.7 -1.22,-2.84 -2.43,-2.84 z"
   class="st1"
   id="path10"
   inkscape:connector-curvature="0"
   style="fill:#7a7a7a;stroke:none;stroke-width:0.75;stroke-linecap:butt" />
			</g>
			<g
   id="shape8491-4"
   transform="translate(23.2527,-26.2446)">
				<title
   id="title13">rect4</title>
				<rect
   x="0"
   y="84.562202"
   width="4.2978902"
   height="11.8158"
   class="st1"
   id="rect15"
   style="fill:#7a7a7a;stroke:none;stroke-width:0.75;stroke-linecap:butt" />
			</g>
			<g
   id="shape8492-6"
   transform="translate(15.8691,-37.9468)">
				<title
   id="title18">path6</title>
				<path
   d="M 16.53,77.63 H 2.64 C 1.21,77.63 0,78.88 0,80.36 v 13.29 c 0,1.48 1.21,2.73 2.64,2.73 h 13.78 c 1.43,0 2.64,-1.25 2.64,-2.73 V 80.36 c 0.12,-1.48 -1.1,-2.73 -2.53,-2.73 z"
   class="st2"
   id="path20"
   inkscape:connector-curvature="0"
   style="fill:#59b4d9;stroke:none;stroke-width:0.75;stroke-linecap:butt" />
			</g>
			<g
   id="shape8493-8">
				<title
   id="title23">path8</title>
				<path
   d="M 16.42,77.63 H 2.64 C 1.21,77.63 0,78.88 0,80.36 v 13.29 c 0,1.48 1.21,2.73 2.64,2.73 h 13.78 c 1.43,0 2.64,-1.25 2.64,-2.73 V 80.36 c 0,-1.48 -1.21,-2.73 -2.64,-2.73 z"
   class="st2"
   id="path25"
   inkscape:connector-curvature="0"
   style="fill:#59b4d9;stroke:none;stroke-width:0.75;stroke-linecap:butt" />
			</g>
			<g
   id="shape8494-10"
   transform="translate(31.8484)">
				<title
   id="title28">path10</title>
				<path
   d="M 16.42,77.63 H 2.64 C 1.21,77.63 0,78.88 0,80.36 v 13.29 c 0,1.48 1.21,2.73 2.64,2.73 h 13.78 c 1.43,0 2.64,-1.25 2.64,-2.73 V 80.36 c 0.12,-1.48 -1.1,-2.73 -2.64,-2.73 z"
   class="st2"
   id="path30"
   inkscape:connector-curvature="0"
   style="fill:#59b4d9;stroke:none;stroke-width:0.75;stroke-linecap:butt" />
			</g>
		</g>
	</g>
</svg>

<?xml version="1.0" encoding="UTF-8" standalone="no"?>
<!DOCTYPE svg PUBLIC "-//W3C//DTD SVG 1.1//EN" "http://www.w3.org/Graphics/SVG/1.1/DTD/svg11.dtd">
<!-- Generated by Microsoft Visio, SVG Export Azure Automation Runbook.svg Page-1 -->
<svg xmlns="http://www.w3.org/2000/svg" xmlns:xlink="http://www.w3.org/1999/xlink" xmlns:ev="http://www.w3.org/2001/xml-events"
		width="0.850394in" height="1.33858in" viewBox="0 0 61.2283 96.378" xml:space="preserve" color-interpolation-filters="sRGB"
		class="st3">
	<style type="text/css">
	<![CDATA[
		.st1 {fill:#7a7a7a;stroke:none;stroke-linecap:butt;stroke-width:0.75}
		.st2 {fill:#59b4d9;stroke:none;stroke-linecap:butt;stroke-width:0.75}
		.st3 {fill:none;fill-rule:evenodd;font-size:12px;overflow:visible;stroke-linecap:square;stroke-miterlimit:3}
	]]>
	</style>

	<g>
		<title>Page-1</title>
		<g id="group8294-1" transform="translate(5.10236,-34.0157)">
			<title>COLOUR-DEVELOPMENT_Azure-Automation-Runbook</title>
			<g id="shape8295-2" transform="translate(7.38355,-14.088)">
				<title>path2</title>
				<path d="M33.61 80.13 L2.53 80.13 C1.21 80.13 0 81.27 0 82.97 L0 95.13 L4.3 96.38 L4.3 84.56 L31.74 84.56 L31.74
							 96.26 L36.04 95.01 L36.04 82.97 C36.04 81.27 34.82 80.13 33.61 80.13 Z" class="st1"/>
			</g>
			<g id="shape8296-4" transform="translate(23.2527,-26.2446)">
				<title>rect4</title>
				<rect x="0" y="84.5622" width="4.29789" height="11.8158" class="st1"/>
			</g>
			<g id="shape8297-6" transform="translate(15.8691,-37.9468)">
				<title>path6</title>
				<path d="M16.53 77.63 L2.64 77.63 C1.21 77.63 0 78.88 0 80.36 L0 93.65 C0 95.13 1.21 96.38 2.64 96.38 L16.42 96.38
							 C17.85 96.38 19.06 95.13 19.06 93.65 L19.06 80.36 C19.18 78.88 17.96 77.63 16.53 77.63 Z" class="st2"/>
			</g>
			<g id="shape8298-8">
				<title>path8</title>
				<path d="M16.42 77.63 L2.64 77.63 C1.21 77.63 0 78.88 0 80.36 L0 93.65 C0 95.13 1.21 96.38 2.64 96.38 L16.42 96.38
							 C17.85 96.38 19.06 95.13 19.06 93.65 L19.06 80.36 C19.06 78.88 17.85 77.63 16.42 77.63 Z" class="st2"/>
			</g>
			<g id="shape8299-10" transform="translate(31.8484,-2.55795E-13)">
				<title>path10</title>
				<path d="M16.42 77.63 L2.64 77.63 C1.21 77.63 0 78.88 0 80.36 L0 93.65 C0 95.13 1.21 96.38 2.64 96.38 L16.42 96.38
							 C17.85 96.38 19.06 95.13 19.06 93.65 L19.06 80.36 C19.18 78.88 17.96 77.63 16.42 77.63 Z" class="st2"/>
			</g>
		</g>
	</g>
</svg>
